Obsidian/actions/16s/edit.svg

<svg height="16" viewBox="0 0 16 16" width="16" xmlns="http://www.w3.org/2000/svg"><path d="m12.210938 1c-.2125 0-.426797.0830469-.591797.2480469l-1.6289066 1.640625 3.1191406 3.1191406 1.640625-1.6289063c.33-.3299999.33-.8516406 0-1.1816406l-1.949219-1.9492187c-.165-.165-.377344-.2480469-.589843-.2480469zm-3.3417974 3.0078125-7.87890622 7.8808595v3.11914h3.11914062l7.880859-7.8789058z" fill="#bebebe"/></svg>

<svg xmlns="http://www.w3.org/2000/svg" width="16" height="16" viewBox="0 0 16 16">
 <defs>
  <style id="current-color-scheme" type="text/css">
   .ColorScheme-Text { color:#bebebe; } .ColorScheme-Highlight { color:#4285f4; }
  </style>
 </defs>
 <path style="fill:currentColor" class="ColorScheme-Text" d="M 12.210938 1 C 11.998438 1 11.784141 1.0830469 11.619141 1.2480469 L 9.9902344 2.8886719 L 13.109375 6.0078125 L 14.75 4.3789062 C 15.08 4.0489063 15.08 3.5272656 14.75 3.1972656 L 12.800781 1.2480469 C 12.635781 1.0830469 12.423437 1 12.210938 1 z M 8.8691406 4.0078125 L 0.99023438 11.888672 L 0.99023438 15.007812 L 4.109375 15.007812 L 11.990234 7.1289062 L 8.8691406 4.0078125 z"/>
</svg>
